; generated by PrusaSlicer 2.6.0+win64 on 2023-09-04 at 01:09:04 UTC

; 

; external perimeters extrusion width = 0.45mm
; perimeters extrusion width = 0.45mm
; infill extrusion width = 0.45mm
; solid infill extrusion width = 0.45mm
; top infill extrusion width = 0.40mm
; support material extrusion width = 0.35mm
; first layer extrusion width = 0.42mm

M73 P0 R92
M73 Q0 S92
;TYPE:Custom
M115 U3.7.1 ; tell printer latest fw version
G90 ; use absolute coordinates
M83 ; extruder relative mode
M104 S205 ; set extruder temp
M140 S60 ; set bed temp
M190 S60 ; wait for bed temp
M109 S205 ; wait for extruder temp
G28 W ; home all without mesh bed level
G80 ; mesh bed leveling
G1 Y-3.0 F1000.0 ; go outside print area
G92 E0.0
G1 X60.0 E9.0 F1000.0 ; intro line
G1 X100.0 E12.5 F1000.0 ; intro line
G92 E0.0
M221 S95
G21 ; set units to millimeters
G90 ; use absolute coordinates
M83 ; use relative distances for extrusion
M900 K30 ; Filament gcode
M107
;LAYER_CHANGE
;Z:0.2
;HEIGHT:0.2
;BEFORE_LAYER_CHANGE
G92 E0.0
;0.2


G1 E-.8 F2100
G1 Z.2 F10800
;AFTER_LAYER_CHANGE
;0.2
G1 X103.015 Y71.193
G1 E.8 F2100
M204 S1000
;TYPE:Skirt/Brim
;WIDTH:0.42
G1 F1200
G1 X104.06 Y70.317 E.04275
G1 X105 Y70.123 E.03009
G1 X145 Y70.123 E1.25417
G1 X146.307 Y70.515 E.04278
G1 X147.183 Y71.56 E.04275
G1 X147.377 Y72.5 E.03009
G1 X147.377 Y137.5 E2.03803
G1 X146.985 Y138.807 E.04278
G1 X145.94 Y139.683 E.04275
G1 X145 Y139.877 E.03009
G1 X105 Y139.877 E1.25417
G1 X103.693 Y139.485 E.04278
G1 X102.817 Y138.44 E.04275
G1 X102.623 Y137.5 E.03009
G1 X102.623 Y72.5 E2.03803
G1 X102.997 Y71.25 E.04091
;WIPE_START
G1 F8640
G1 X104.06 Y70.317 E-.32658
G1 X105 Y70.123 E-.22162
G1 X106.091 Y70.123 E-.2518
;WIPE_END
G1 X105.787 Y73.287 F10800
G1 E.8 F2100
;TYPE:Perimeter
;WIDTH:0.419999
G1 F1200
G1 X144.213 Y73.287 E1.20482
G1 X144.213 Y136.713 E1.98867
G1 X105.787 Y136.713 E1.20482
M73 P0 R91
G1 X105.787 Y73.347 E1.98679
G1 X105.41 Y72.91 F10800
;TYPE:External perimeter
M73 Q0 S91
G1 F1200
G1 X144.59 Y72.91 E1.22846
G1 X144.59 Y137.09 E2.01232
G1 X105.41 Y137.09 E1.22846
G1 X105.41 Y72.97 E2.01043
G1 X105.787 Y73.044 F10800
;WIPE_START
G1 F8640
G1 X108.875 Y72.965 E-.8
;WIPE_END
G1 X141.932 Y104.083 F10800
G1 E.8 F2100
;TYPE:Perimeter
G1 F1200
G1 X141.463 Y104.346 E.01686
G1 X140.873 Y104.508 E.01918
G1 X140.262 Y104.524 E.01916
G1 X139.665 Y104.394 E.01916
G1 X139.193 Y104.165 E.01645
G1 X139.004 Y104.047 E.00699
G1 X138.615 Y103.7 E.01634
G1 X138.287 Y103.238 E.01777
G1 X138.055 Y102.673 E.01915
G1 X137.965 Y102.068 E.01918
G1 X138.023 Y101.46 E.01915
G1 X138.224 Y100.882 E.01919
G1 X138.558 Y100.37 E.01917
G1 X139.004 Y99.953 E.01914
G1 X139.508 Y99.67 E.01812
G1 X140.118 Y99.494 E.01991
G1 X140.738 Y99.476 E.01945
G1 X141.335 Y99.606 E.01916
G1 X141.884 Y99.875 E.01917
G1 X142.352 Y100.268 E.01916
G1 X142.713 Y100.762 E.01918
G1 X142.945 Y101.327 E.01915
G1 X143.035 Y101.932 E.01918
G1 X142.977 Y102.54 E.01915
G1 X142.776 Y103.118 E.01919
G1 X142.442 Y103.63 E.01917
G1 X141.984 Y104.054 E.01957
G1 X141.746 Y103.765 F10800
;TYPE:External perimeter
G1 F1200
G1 X141.287 Y104.012 E.01634
G1 X140.783 Y104.142 E.01632
G1 X140.262 Y104.147 E.01634
G1 X139.755 Y104.028 E.01633
G1 X139.292 Y103.791 E.01631
G1 X138.898 Y103.45 E.01634
G1 X138.598 Y103.024 E.01634
G1 X138.408 Y102.539 E.01633
G1 X138.34 Y102.023 E.01632
G1 X138.397 Y101.505 E.01634
G1 X138.577 Y101.016 E.01634
G1 X138.868 Y100.584 E.01633
G1 X139.254 Y100.235 E.01632
G1 X139.701 Y99.995 E.01591
G1 X140.214 Y99.859 E.01664
G1 X140.738 Y99.853 E.01643
G1 X141.245 Y99.972 E.01633
G1 X141.708 Y100.209 E.01631
G1 X142.102 Y100.55 E.01634
G1 X142.402 Y100.976 E.01634
G1 X142.592 Y101.461 E.01633
G1 X142.66 Y101.977 E.01632
G1 X142.603 Y102.495 E.01634
G1 X142.423 Y102.984 E.01634
G1 X142.132 Y103.416 E.01633
G1 X141.79 Y103.725 E.01445
G1 X141.782 Y104.163 F10800
;WIPE_START
G1 F8640
G1 X141.287 Y104.012 E-.13372
G1 X140.783 Y104.142 E-.12018
G1 X140.262 Y104.147 E-.12031
G1 X139.755 Y104.028 E-.12025
G1 X139.292 Y103.791 E-.1201
G1 X138.898 Y103.45 E-.12032
G1 X138.736 Y103.219 E-.06512
;WIPE_END
G1 X138.423 Y107.421 F10800
G1 E.8 F2100
;TYPE:Perimeter
G1 F1200
G1 X139.2 Y108.547 E.04289
G1 X139.875 Y109.719 E.04241
G1 X140.452 Y110.941 E.04237
G1 X140.916 Y112.163 E.04098
G1 X141.294 Y113.461 E.04239
G1 X141.566 Y114.785 E.04238
G1 X141.734 Y116.172 E.04381
G1 X141.787 Y117.477 E.04095
G1 X141.734 Y118.828 E.04239
G1 X141.573 Y120.17 E.04238
G1 X141.304 Y121.495 E.04239
G1 X140.916 Y122.837 E.0438
G1 X140.435 Y124.101 E.0424
G1 X139.875 Y125.281 E.04095
G1 X139.2 Y126.453 E.04241
G1 X138.434 Y127.566 E.04236
G1 X137.58 Y128.615 E.04241
G1 X137.171 Y129.044 E.01858
G1 X136.645 Y129.591 E.02379
G1 X135.634 Y130.489 E.0424
G1 X134.555 Y131.302 E.04236
G1 X133.413 Y132.026 E.0424
G1 X132.176 Y132.676 E.04381
G1 X130.974 Y133.188 E.04096
G1 X129.692 Y133.618 E.0424
G1 X128.38 Y133.943 E.04238
G1 X127.046 Y134.162 E.04239
G1 X125.699 Y134.272 E.04237
G1 X124.301 Y134.272 E.04383
G1 X122.954 Y134.162 E.04237
G1 X121.62 Y133.943 E.04239
G1 X120.308 Y133.618 E.04238
G1 X119.069 Y133.204 E.04096
G1 X117.824 Y132.676 E.0424
G1 X116.626 Y132.049 E.0424
G1 X115.483 Y131.328 E.04237
G1 X114.401 Y130.518 E.04238
G1 X113.758 Y129.95 E.0269
G1 X113.376 Y129.612 E.01599
G1 X112.45 Y128.649 E.04189
G1 X111.574 Y127.574 E.04348
G1 X110.8 Y126.453 E.04271
G1 X110.125 Y125.281 E.04241
G1 X109.548 Y124.059 E.04237
G1 X109.084 Y122.837 E.04098
G1 X108.706 Y121.539 E.04239
G1 X108.434 Y120.215 E.04238
G1 X108.266 Y118.828 E.04381
G1 X108.213 Y117.523 E.04095
G1 X108.266 Y116.172 E.04239
G1 X108.427 Y114.83 E.04238
G1 X108.696 Y113.505 E.04239
G1 X109.084 Y112.163 E.0438
G1 X109.565 Y110.899 E.0424
G1 X110.147 Y109.679 E.04238
G1 X110.8 Y108.547 E.04098
G1 X111.566 Y107.434 E.04236
G1 X112.444 Y106.36 E.0435
G1 X113.355 Y105.409 E.04129
G1 X114.366 Y104.511 E.0424
G1 X114.809 Y104.176 E.01741
G1 X115.445 Y103.698 E.02495
G1 X116.587 Y102.974 E.0424
G1 X117.783 Y102.344 E.04238
G1 X119.026 Y101.812 E.04239
G1 X120.384 Y101.362 E.04486
G1 X121.62 Y101.057 E.03992
G1 X122.954 Y100.838 E.04239
G1 X124.301 Y100.728 E.04237
G1 X125.653 Y100.726 E.04239
G1 X127.001 Y100.833 E.0424
G1 X128.38 Y101.057 E.0438
G1 X129.648 Y101.37 E.04095
G1 X130.569 Y101.675 E.03042
G1 X130.974 Y101.812 E.01341
G1 X132.176 Y102.324 E.04096
G1 X133.374 Y102.951 E.0424
G1 X134.517 Y103.672 E.04237
G1 X135.599 Y104.482 E.04238
G1 X136.242 Y105.05 E.0269
G1 X136.645 Y105.409 E.01692
G1 X137.55 Y106.351 E.04096
G1 X138.387 Y107.373 E.04142
G1 X138.114 Y107.636 F10800
;TYPE:External perimeter
G1 F1200
G1 X138.866 Y108.723 E.04144
G1 X139.534 Y109.881 E.04192
G1 X140.1 Y111.075 E.04143
G1 X140.563 Y112.296 E.04094
G1 X140.931 Y113.565 E.04143
G1 X141.196 Y114.86 E.04145
G1 X141.357 Y116.187 E.04191
G1 X141.41 Y117.492 E.04095
G1 X141.357 Y118.813 E.04145
G1 X141.199 Y120.125 E.04143
G1 X140.935 Y121.42 E.04144
G1 X140.563 Y122.704 E.04191
G1 X140.094 Y123.939 E.04142
G1 X139.534 Y125.119 E.04095
G1 X138.874 Y126.264 E.04144
G1 X138.123 Y127.352 E.04145
G1 X137.288 Y128.376 E.04143
G1 X136.899 Y128.783 E.01765
G1 X136.373 Y129.33 E.02379
G1 X135.384 Y130.206 E.04142
G1 X134.328 Y131.001 E.04144
G1 X133.212 Y131.708 E.04142
G1 X132.028 Y132.329 E.04192
G1 X130.826 Y132.841 E.04096
G1 X129.573 Y133.26 E.04143
G1 X128.29 Y133.577 E.04144
G1 X126.986 Y133.789 E.04142
G1 X125.653 Y133.897 E.04193
G1 X124.332 Y133.896 E.04142
G1 X123.03 Y133.791 E.04096
G1 X121.725 Y133.58 E.04145
G1 X120.442 Y133.264 E.04143
G1 X119.174 Y132.841 E.04191
G1 X117.972 Y132.329 E.04096
G1 X116.802 Y131.715 E.04143
G1 X115.684 Y131.009 E.04146
G1 X114.625 Y130.215 E.0415
G1 X113.627 Y129.33 E.04182
G1 X112.722 Y128.388 E.04096
G1 X111.866 Y127.336 E.04252
G1 X111.126 Y126.264 E.04084
G1 X110.473 Y125.133 E.04095
G1 X109.906 Y123.939 E.04144
G1 X109.437 Y122.704 E.04142
G1 X109.065 Y121.42 E.04191
G1 X108.801 Y120.125 E.04144
G1 X108.643 Y118.813 E.04143
G1 X108.59 Y117.508 E.04095
G1 X108.643 Y116.187 E.04145
G1 X108.801 Y114.875 E.04143
G1 X109.065 Y113.58 E.04144
G1 X109.432 Y112.311 E.04142
G1 X109.9 Y111.075 E.04144
G1 X110.473 Y109.867 E.04192
G1 X111.126 Y108.736 E.04095
G1 X111.877 Y107.648 E.04145
G1 X112.736 Y106.599 E.04251
G1 X113.101 Y106.217 E.01657
G1 X113.627 Y105.67 E.02379
G1 X114.616 Y104.794 E.04142
G1 X115.672 Y103.999 E.04144
G1 X116.18 Y103.677 E.01886
G1 X116.788 Y103.292 E.02256
G1 X117.958 Y102.678 E.04143
G1 X119.174 Y102.159 E.04145
G1 X120.46 Y101.732 E.04249
G1 X121.71 Y101.423 E.04037
G1 X123.014 Y101.211 E.04142
G1 X124.332 Y101.104 E.04146
G1 X125.653 Y101.103 E.04142
G1 X126.97 Y101.209 E.04143
G1 X128.29 Y101.423 E.04193
G1 X129.558 Y101.736 E.04095
G1 X130.449 Y102.033 E.02945
G1 X130.826 Y102.159 E.01246
G1 X132.028 Y102.671 E.04096
G1 X133.198 Y103.285 E.04143
G1 X134.316 Y103.991 E.04146
G1 X135.375 Y104.785 E.0415
G1 X136.373 Y105.67 E.04182
G1 X137.278 Y106.612 E.04096
G1 X138.076 Y107.589 E.03955
G1 X138.511 Y107.587 F10800
;WIPE_START
G1 F8640
G1 X138.866 Y108.723 E-.31912
G1 X139.534 Y109.881 E-.30868
G1 X139.853 Y110.555 E-.1722
;WIPE_END
G1 X110.932 Y104.083 F10800
G1 E.8 F2100
;TYPE:Perimeter
G1 F1200
G1 X110.463 Y104.346 E.01686
G1 X109.873 Y104.508 E.01918
G1 X109.262 Y104.524 E.01916
G1 X108.665 Y104.394 E.01916
G1 X108.116 Y104.125 E.01917
G1 X107.648 Y103.732 E.01916
G1 X107.287 Y103.238 E.01918
G1 X107.055 Y102.673 E.01915
G1 X106.965 Y102.068 E.01918
G1 X107.023 Y101.46 E.01915
G1 X107.224 Y100.882 E.01919
G1 X107.558 Y100.37 E.01917
G1 X108.004 Y99.953 E.01914
G1 X108.508 Y99.67 E.01812
G1 X109.118 Y99.494 E.01991
G1 X109.738 Y99.476 E.01945
G1 X110.335 Y99.606 E.01916
G1 X110.884 Y99.875 E.01917
G1 X111.269 Y100.195 E.0157
G1 X111.533 Y100.502 E.0127
G1 X111.776 Y100.882 E.01414
G1 X111.977 Y101.46 E.01919
G1 X112.039 Y101.999 E.01701
G1 X111.977 Y102.54 E.01707
G1 X111.776 Y103.118 E.01919
G1 X111.442 Y103.63 E.01917
G1 X110.984 Y104.054 E.01957
G1 X110.746 Y103.765 F10800
;TYPE:External perimeter
G1 F1200
G1 X110.287 Y104.012 E.01634
G1 X109.783 Y104.142 E.01632
G1 X109.262 Y104.147 E.01634
G1 X108.755 Y104.028 E.01633
G1 X108.292 Y103.791 E.01631
G1 X107.898 Y103.45 E.01634
G1 X107.598 Y103.024 E.01634
G1 X107.408 Y102.539 E.01633
G1 X107.34 Y102.023 E.01632
G1 X107.397 Y101.505 E.01634
G1 X107.577 Y101.016 E.01634
G1 X107.868 Y100.584 E.01633
G1 X108.254 Y100.235 E.01632
G1 X108.723 Y99.988 E.01662
G1 X109.214 Y99.859 E.01592
G1 X109.738 Y99.853 E.01643
G1 X110.245 Y99.972 E.01633
G1 X110.708 Y100.209 E.01631
G1 X111.102 Y100.55 E.01634
G1 X111.402 Y100.976 E.01634
G1 X111.592 Y101.461 E.01633
G1 X111.66 Y101.977 E.01632
G1 X111.603 Y102.495 E.01634
G1 X111.423 Y102.984 E.01634
G1 X111.132 Y103.416 E.01633
G1 X110.79 Y103.725 E.01445
G1 X110.782 Y104.163 F10800
;WIPE_START
G1 F8640
G1 X110.287 Y104.012 E-.13372
G1 X109.783 Y104.142 E-.12018
G1 X109.262 Y104.147 E-.12031
G1 X108.755 Y104.028 E-.12025
G1 X108.292 Y103.791 E-.1201
G1 X107.898 Y103.45 E-.12032
G1 X107.736 Y103.219 E-.06512
;WIPE_END
G1 X108.068 Y130.917 F10800
G1 E.8 F2100
;TYPE:Perimeter
G1 F1200
G1 X108.508 Y130.67 E.01582
G1 X109.118 Y130.494 E.01991
G1 X109.738 Y130.476 E.01945
G1 X110.335 Y130.606 E.01916
G1 X110.807 Y130.835 E.01645
G1 X110.996 Y130.953 E.00699
G1 X111.385 Y131.3 E.01634
G1 X111.713 Y131.762 E.01777
G1 X111.945 Y132.327 E.01915
G1 X112.035 Y132.932 E.01918
G1 X111.977 Y133.54 E.01915
G1 X111.776 Y134.118 E.01919
G1 X111.442 Y134.63 E.01917
G1 X110.996 Y135.047 E.01914
G1 X110.463 Y135.346 E.01916
G1 X109.873 Y135.508 E.01918
G1 X109.262 Y135.524 E.01916
G1 X108.665 Y135.394 E.01916
G1 X108.116 Y135.125 E.01917
G1 X107.661 Y134.743 E.01863
G1 X107.287 Y134.238 E.0197
G1 X107.055 Y133.673 E.01915
G1 X106.965 Y133.068 E.01918
G1 X107.023 Y132.46 E.01915
G1 X107.224 Y131.882 E.01919
G1 X107.558 Y131.37 E.01917
G1 X108.016 Y130.946 E.01957
G1 X108.254 Y131.235 F10800
;TYPE:External perimeter
G1 F1200
G1 X108.723 Y130.988 E.01662
G1 X109.214 Y130.859 E.01592
G1 X109.738 Y130.853 E.01643
G1 X110.245 Y130.972 E.01633
G1 X110.708 Y131.209 E.01631
G1 X111.102 Y131.55 E.01634
G1 X111.402 Y131.976 E.01634
G1 X111.592 Y132.461 E.01633
G1 X111.66 Y132.977 E.01632
G1 X111.603 Y133.495 E.01634
G1 X111.423 Y133.984 E.01634
G1 X111.132 Y134.415 E.01631
G1 X110.746 Y134.765 E.01634
G1 X110.287 Y135.012 E.01634
M73 P1 R91
M73 Q1 S91
G1 X109.783 Y135.142 E.01632
G1 X109.262 Y135.147 E.01634
G1 X108.755 Y135.028 E.01633
G1 X108.292 Y134.791 E.01631
G1 X107.911 Y134.461 E.0158
G1 X107.598 Y134.024 E.01685
G1 X107.408 Y133.539 E.01633
G1 X107.34 Y133.023 E.01632
G1 X107.397 Y132.505 E.01634
G1 X107.577 Y132.016 E.01634
G1 X107.868 Y131.584 E.01633
G1 X108.21 Y131.275 E.01445
G1 X108.22 Y130.837 F10800
;WIPE_START
G1 F8640
G1 X108.723 Y130.988 E-.13573
G1 X109.214 Y130.859 E-.11722
G1 X109.738 Y130.853 E-.121
G1 X110.245 Y130.972 E-.12025
G1 X110.708 Y131.209 E-.1201
G1 X111.102 Y131.55 E-.12032
G1 X111.265 Y131.782 E-.06538
;WIPE_END
G1 X139.06 Y135.077 F10800
G1 E.8 F2100
;TYPE:Perimeter
G1 F1200
G1 X138.648 Y134.732 E.01685
G1 X138.287 Y134.238 E.01918
G1 X138.055 Y133.673 E.01915
G1 X137.965 Y133.068 E.01918
G1 X138.023 Y132.46 E.01915
G1 X138.224 Y131.882 E.01919
G1 X138.558 Y131.37 E.01917
G1 X139.004 Y130.953 E.01914
G1 X139.116 Y130.875 E.00428
G1 X139.627 Y130.623 E.01786
G1 X140.118 Y130.494 E.01592
G1 X140.738 Y130.476 E.01945
G1 X141.335 Y130.606 E.01916
G1 X141.884 Y130.875 E.01917
G1 X142.352 Y131.268 E.01916
G1 X142.713 Y131.762 E.01918
G1 X142.945 Y132.327 E.01915
G1 X143.035 Y132.932 E.01918
G1 X142.977 Y133.54 E.01915
G1 X142.776 Y134.118 E.01919
G1 X142.442 Y134.63 E.01917
G1 X141.996 Y135.047 E.01914
G1 X141.463 Y135.346 E.01916
G1 X140.873 Y135.508 E.01918
G1 X140.262 Y135.524 E.01916
G1 X139.665 Y135.394 E.01916
G1 X139.106 Y135.116 E.01957
G1 X139.292 Y134.791 F10800
;TYPE:External perimeter
G1 F1200
G1 X138.898 Y134.45 E.01634
G1 X138.598 Y134.024 E.01634
G1 X138.408 Y133.539 E.01633
G1 X138.34 Y133.023 E.01632
G1 X138.397 Y132.505 E.01634
G1 X138.577 Y132.016 E.01634
G1 X138.868 Y131.584 E.01633
G1 X139.292 Y131.209 E.01775
G1 X139.723 Y130.988 E.01519
G1 X140.214 Y130.859 E.01592
G1 X140.738 Y130.853 E.01643
G1 X141.245 Y130.972 E.01633
G1 X141.708 Y131.209 E.01631
G1 X142.102 Y131.55 E.01634
G1 X142.402 Y131.976 E.01634
G1 X142.592 Y132.461 E.01633
G1 X142.66 Y132.977 E.01632
G1 X142.603 Y133.495 E.01634
G1 X142.423 Y133.984 E.01634
G1 X142.132 Y134.416 E.01633
G1 X141.746 Y134.765 E.01632
G1 X141.287 Y135.012 E.01634
G1 X140.783 Y135.142 E.01632
G1 X140.262 Y135.147 E.01634
G1 X139.755 Y135.028 E.01633
G1 X139.345 Y134.818 E.01444
G1 X138.932 Y134.966 F10800
;WIPE_START
G1 F8640
G1 X138.898 Y134.45 E-.13369
G1 X138.598 Y134.024 E-.12031
G1 X138.408 Y133.539 E-.12027
G1 X138.34 Y133.023 E-.12018
G1 X138.397 Y132.505 E-.12033
G1 X138.577 Y132.016 E-.12032
G1 X138.734 Y131.783 E-.0649
;WIPE_END
G1 X143.336 Y73.4 F10800
G1 E.8 F2100
;TYPE:Solid infill
;WIDTH:0.420569
G1 F1200
G1 X143.93 Y73.994 E.02638
G1 X143.93 Y74.528 E.01677
G1 X142.972 Y73.57 E.04254
G1 X142.438 Y73.57 E.01677
G1 X143.93 Y75.062 E.06626
G1 X143.93 Y75.596 E.01677
G1 X141.904 Y73.57 E.08997
G1 X141.37 Y73.57 E.01677
G1 X143.93 Y76.13 E.11369
G1 X143.93 Y76.664 E.01677
G1 X140.836 Y73.57 E.1374
G1 X140.302 Y73.57 E.01677
G1 X143.93 Y77.198 E.16111
G1 X143.93 Y77.733 E.0168
G1 X139.767 Y73.57 E.18487
G1 X139.233 Y73.57 E.01677
G1 X143.93 Y78.267 E.20859
G1 X143.93 Y78.801 E.01677
G1 X138.699 Y73.57 E.2323
G1 X138.165 Y73.57 E.01677
G1 X143.93 Y79.335 E.25602
G1 X143.93 Y79.869 E.01677
G1 X137.631 Y73.57 E.27973
G1 X137.097 Y73.57 E.01677
G1 X143.93 Y80.403 E.30344
G1 X143.93 Y80.937 E.01677
G1 X136.563 Y73.57 E.32716
G1 X136.029 Y73.57 E.01677
G1 X143.93 Y81.471 E.35087
G1 X143.93 Y82.005 E.01677
G1 X135.495 Y73.57 E.37459
G1 X134.961 Y73.57 E.01677
G1 X143.93 Y82.539 E.3983
G1 X143.93 Y83.073 E.01677
G1 X134.427 Y73.57 E.42202
G1 X133.893 Y73.57 E.01677
G1 X143.93 Y83.607 E.44573
G1 X143.93 Y84.141 E.01677
G1 X133.359 Y73.57 E.46944
