; generated by PrusaSlicer 2.6.1+win64 on 2023-11-25 at 21:31:52 UTC

; 

; external perimeters extrusion width = 0.45mm
; perimeters extrusion width = 0.45mm
; infill extrusion width = 0.45mm
; solid infill extrusion width = 0.45mm
; top infill extrusion width = 0.40mm
; support material extrusion width = 0.35mm
; first layer extrusion width = 0.42mm

; external perimeters extrusion width = 0.45mm
; perimeters extrusion width = 0.45mm
; infill extrusion width = 0.45mm
; solid infill extrusion width = 0.45mm
; top infill extrusion width = 0.40mm
; support material extrusion width = 0.35mm
; first layer extrusion width = 0.42mm

; external perimeters extrusion width = 0.45mm
; perimeters extrusion width = 0.45mm
; infill extrusion width = 0.45mm
; solid infill extrusion width = 0.45mm
; top infill extrusion width = 0.40mm
; support material extrusion width = 0.35mm
; first layer extrusion width = 0.42mm

; external perimeters extrusion width = 0.45mm
; perimeters extrusion width = 0.45mm
; infill extrusion width = 0.45mm
; solid infill extrusion width = 0.45mm
; top infill extrusion width = 0.40mm
; support material extrusion width = 0.35mm
; first layer extrusion width = 0.42mm

; external perimeters extrusion width = 0.45mm
; perimeters extrusion width = 0.45mm
; infill extrusion width = 0.45mm
; solid infill extrusion width = 0.45mm
; top infill extrusion width = 0.40mm
; support material extrusion width = 0.35mm
; first layer extrusion width = 0.42mm

; external perimeters extrusion width = 0.45mm
; perimeters extrusion width = 0.45mm
; infill extrusion width = 0.45mm
; solid infill extrusion width = 0.45mm
; top infill extrusion width = 0.40mm
; support material extrusion width = 0.35mm
; first layer extrusion width = 0.42mm

; external perimeters extrusion width = 0.45mm
; perimeters extrusion width = 0.45mm
; infill extrusion width = 0.45mm
; solid infill extrusion width = 0.45mm
; top infill extrusion width = 0.40mm
; support material extrusion width = 0.35mm
; first layer extrusion width = 0.42mm

M73 P0 R28
M73 Q0 S28
;TYPE:Custom
M115 U3.7.1 ; tell printer latest fw version
G90 ; use absolute coordinates
M83 ; extruder relative mode
M104 S205 ; set extruder temp
M140 S60 ; set bed temp
M190 S60 ; wait for bed temp
M109 S205 ; wait for extruder temp
G28 W ; home all without mesh bed level
G80 ; mesh bed leveling
G1 Y-3.0 F1000.0 ; go outside print area
G92 E0.0
G1 X60.0 E9.0 F1000.0 ; intro line
G1 X100.0 E12.5 F1000.0 ; intro line
G92 E0.0
M221 S95
G21 ; set units to millimeters
G90 ; use absolute coordinates
M83 ; use relative distances for extrusion
M900 K30 ; Filament gcode
M107
;LAYER_CHANGE
;Z:0.2
;HEIGHT:0.2
;BEFORE_LAYER_CHANGE
G92 E0.0
;0.2


G1 E-.8 F2100
M73 P0 R27
G1 Z.2 F10800
;AFTER_LAYER_CHANGE
;0.2
G1 X64.779 Y49.486
G1 E.8 F2100
M204 S1000
;TYPE:Skirt/Brim
;WIDTH:0.42
G1 F1200
G1 X67.708 Y46.557 E.12988
G1 X69.389 Y45.861 E.05705
G1 X98.312 Y45.868 E.90686
G1 X145.806 Y49.528 E1.49356
M73 Q0 S27
G1 X147.066 Y49.84 E.0407
G1 X148.269 Y50.326 E.04068
G1 X149.945 Y51.377 E.06203
G1 X150.791 Y52.129 E.03549
G1 X151.639 Y53.112 E.0407
G1 X152.342 Y54.204 E.04072
G1 X152.885 Y55.383 E.0407
G1 X153.172 Y56.256 E.02881
G1 X153.389 Y57.368 E.03552
G1 X154.96 Y72.447 E.47535
G1 X155.5 Y120.4 E1.50363
G1 X154.975 Y171.561 E1.6042
G1 X154.784 Y173.131 E.04959
M73 P1 R27
M73 Q1 S27
G1 X154.451 Y174.399 E.04111
G1 X153.718 Y176.115 E.05851
G1 X153.011 Y177.258 E.04214
G1 X151.999 Y178.48 E.04975
G1 X150.629 Y179.687 E.05725
G1 X149.286 Y180.537 E.04983
G1 X148.056 Y181.094 E.04234
G1 X146.142 Y181.626 E.06229
G1 X144.969 Y181.77 E.03705
G1 X143.92 Y181.789 E.0329
G1 X142.218 Y181.604 E.05368
G1 X140.424 Y181.099 E.05844
G1 X67.686 Y152.759 E2.44764
G1 X66.869 Y152.225 E.0306
G1 X63.94 Y149.296 E.12988
G1 X63.243 Y147.615 E.05706
G1 X63.401 Y109.014 E1.21032
G1 X64.083 Y51.137 E1.81482
G1 X64.756 Y49.541 E.05431
;WIPE_START
G1 F8640
G1 X67.193 Y47.078 E-.8
;WIPE_END
G1 X140.483 Y151.615 F10800
G1 E.8 F2100
G1 F1200
G1 X141.324 Y151.122 E.03057
G1 X141.977 Y150.846 E.02223
G1 X142.638 Y150.643 E.02168
G1 X143.698 Y150.47 E.03368
G1 X144.762 Y150.47 E.03336
G1 X145.696 Y150.612 E.02962
G1 X146.625 Y150.896 E.03046
G1 X147.503 Y151.312 E.03046
G1 X148.308 Y151.851 E.03038
G1 X148.996 Y152.471 E.02904
G1 X149.57 Y153.153 E.02795
G1 X149.977 Y153.782 E.02349
G1 X150.304 Y154.435 E.0229
G1 X150.656 Y155.466 E.03416
G1 X151.355 Y167.203 E.36866
G1 X151.765 Y168.082 E.03041
G1 X152.047 Y168.932 E.02808
G1 X152.244 Y169.894 E.03079
G1 X152.324 Y170.919 E.03224
G1 X152.294 Y171.734 E.02557
G1 X152.186 Y172.529 E.02516
G1 X152 Y173.31 E.02517
G1 X151.739 Y174.068 E.02514
G1 X151.173 Y175.207 E.03988
G1 X150.659 Y175.959 E.02856
G1 X150.082 Y176.631 E.02777
G1 X149.456 Y177.22 E.02695
G1 X148.787 Y177.728 E.02634
G1 X148.052 Y178.175 E.02697
G1 X147.288 Y178.535 E.02648
G1 X146.487 Y178.813 E.02658
G1 X145.666 Y179.004 E.02643
G1 X144.836 Y179.108 E.02623
G1 X143.981 Y179.127 E.02681
G1 X143.096 Y179.051 E.02785
G1 X142.21 Y178.876 E.02832
G1 X141.012 Y178.464 E.03972
G1 X140.289 Y178.104 E.02532
G1 X139.589 Y177.664 E.02592
G1 X138.953 Y177.168 E.02529
G1 X138.367 Y176.61 E.02537
G1 X137.796 Y175.941 E.02758
G1 X137.298 Y175.209 E.02776
G1 X136.733 Y174.076 E.0397
G1 X136.466 Y173.298 E.02579
G1 X136.277 Y172.494 E.0259
G1 X136.17 Y171.674 E.02593
G1 X136.147 Y170.849 E.02588
G1 X136.229 Y169.868 E.03087
G1 X136.429 Y168.909 E.03072
G1 X136.705 Y168.081 E.02737
G1 X137.113 Y167.205 E.0303
G1 X137.77 Y155.686 E.36176
G1 X138.136 Y154.503 E.03883
G1 X138.516 Y153.739 E.02675
G1 X138.983 Y153.042 E.02631
G1 X139.68 Y152.267 E.03268
G1 X140.436 Y151.653 E.03054
G1 X140.673 Y151.944 F10800
G1 F1200
G1 X141.483 Y151.464 E.02952
G1 X142.097 Y151.203 E.02092
G1 X142.736 Y151.007 E.02096
G1 X143.742 Y150.845 E.03195
G1 X144.747 Y150.847 E.03151
G1 X145.625 Y150.982 E.02785
G1 X146.501 Y151.252 E.02874
G1 X147.328 Y151.647 E.02874
G1 X148.086 Y152.156 E.02863
G1 X148.733 Y152.742 E.02737
G1 X149.273 Y153.386 E.02635
G1 X149.645 Y153.96 E.02145
G1 X149.953 Y154.572 E.02148
G1 X150.282 Y155.515 E.03131
G1 X150.985 Y167.324 E.37092
G1 X151.085 Y167.497 E.00627
G1 X151.417 Y168.228 E.02517
G1 X151.68 Y169.02 E.02617
G1 X151.869 Y169.936 E.02933
G1 X151.947 Y170.916 E.03082
G1 X151.919 Y171.693 E.02438
G1 X151.817 Y172.452 E.02401
G1 X151.64 Y173.197 E.02401
G1 X151.387 Y173.934 E.02443
G1 X150.854 Y175.005 E.03751
G1 X150.365 Y175.722 E.02721
M73 P2 R27
M73 Q2 S27
G1 X149.816 Y176.364 E.02649
G1 X149.22 Y176.926 E.02568
G1 X148.583 Y177.411 E.0251
G1 X147.882 Y177.838 E.02574
G1 X147.154 Y178.182 E.02525
G1 X146.391 Y178.448 E.02534
G1 X145.609 Y178.631 E.02518
G1 X144.798 Y178.733 E.02563
G1 X143.983 Y178.749 E.02556
G1 X143.139 Y178.676 E.02656
G1 X142.296 Y178.508 E.02695
G1 X141.169 Y178.121 E.03736
G1 X140.481 Y177.78 E.02408
G1 X139.813 Y177.361 E.02472
G1 X139.206 Y176.889 E.02411
G1 X138.634 Y176.344 E.02477
G1 X138.09 Y175.704 E.02634
G1 X137.617 Y175.008 E.02639
G1 X137.086 Y173.941 E.03737
G1 X136.83 Y173.202 E.02452
G1 X136.649 Y172.435 E.02471
G1 X136.547 Y171.654 E.0247
G1 X136.524 Y170.849 E.02525
G1 X136.604 Y169.912 E.02949
G1 X136.796 Y168.997 E.02931
G1 X137.053 Y168.227 E.02545
G1 X137.384 Y167.497 E.02513
G1 X137.484 Y167.325 E.00624
G1 X138.145 Y155.731 E.36411
G1 X138.481 Y154.657 E.03528
G1 X138.837 Y153.938 E.02516
G1 X139.274 Y153.283 E.02469
G1 X139.93 Y152.55 E.03084
G1 X140.627 Y151.982 E.02819
G1 X140.864 Y152.272 F10800
G1 F1200
G1 X141.642 Y151.806 E.02843
G1 X142.235 Y151.554 E.0202
G1 X142.833 Y151.372 E.0196
G1 X143.758 Y151.222 E.02938
G1 X144.704 Y151.222 E.02966
G1 X145.554 Y151.353 E.02697
G1 X146.376 Y151.608 E.02698
G1 X147.152 Y151.98 E.02698
G1 X147.863 Y152.461 E.02692
G1 X148.469 Y153.012 E.02568
G1 X148.976 Y153.619 E.0248
G1 X149.323 Y154.156 E.02005
G1 X149.602 Y154.71 E.01945
G1 X149.907 Y155.565 E.02846
G1 X150.614 Y167.438 E.37293
G1 X150.746 Y167.663 E.00818
G1 X151.07 Y168.375 E.02453
G1 X151.313 Y169.107 E.02418
G1 X151.494 Y169.978 E.02789
G1 X151.57 Y170.915 E.02948
G1 X151.545 Y171.652 E.02312
G1 X151.445 Y172.392 E.02341
G1 X151.276 Y173.1 E.02282
G1 X151.034 Y173.799 E.02319
G1 X150.534 Y174.804 E.0352
G1 X150.072 Y175.485 E.0258
G1 X149.55 Y176.097 E.02522
G1 X148.983 Y176.632 E.02444
G1 X148.378 Y177.095 E.02389
G1 X147.711 Y177.502 E.0245
G1 X147.02 Y177.83 E.02398
G1 X146.295 Y178.083 E.02408
G1 X145.533 Y178.261 E.02454
G1 X144.762 Y178.358 E.02436
G1 X143.987 Y178.372 E.0243
G1 X143.183 Y178.301 E.02531
G1 X142.382 Y178.141 E.02561
G1 X141.325 Y177.778 E.03504
G1 X140.658 Y177.446 E.02336
G1 X140.022 Y177.047 E.02354
G1 X139.445 Y176.597 E.02294
G1 X138.902 Y176.078 E.02355
G1 X138.385 Y175.468 E.02507
G1 X137.937 Y174.807 E.02504
G1 X137.438 Y173.806 E.03507
G1 X137.195 Y173.105 E.02326
G1 X137.022 Y172.376 E.02349
G1 X136.923 Y171.633 E.0235
G1 X136.901 Y170.87 E.02393
G1 X136.978 Y169.955 E.02879
G1 X137.162 Y169.086 E.02785
G1 X137.4 Y168.374 E.02354
G1 X137.723 Y167.662 E.02451
G1 X137.855 Y167.438 E.00815
G1 X138.52 Y155.776 E.36625
G1 X138.825 Y154.811 E.03173
G1 X139.158 Y154.136 E.0236
G1 X139.564 Y153.524 E.02303
G1 X140.181 Y152.832 E.02907
G1 X140.818 Y152.31 E.02582
G1 X141.056 Y152.6 F10800
G1 F1200
G1 X141.802 Y152.148 E.02735
G1 X142.355 Y151.912 E.01885
G1 X142.931 Y151.736 E.01888
G1 X143.802 Y151.597 E.02766
G1 X144.661 Y151.597 E.02693
G1 X145.456 Y151.717 E.02521
G1 X146.226 Y151.954 E.02526
G1 X146.953 Y152.301 E.02526
G1 X147.62 Y152.75 E.02521
G1 X148.189 Y153.265 E.02406
G1 X148.666 Y153.834 E.02328
G1 X148.991 Y154.335 E.01872
G1 X149.26 Y154.869 E.01875
G1 X149.543 Y155.665 E.02649
G1 X150.243 Y167.553 E.37339
G1 X150.408 Y167.829 E.01008
G1 X150.722 Y168.521 E.02383
G1 X150.951 Y169.215 E.02291
G1 X151.119 Y170.021 E.02581
G1 X151.193 Y170.913 E.02806
G1 X151.169 Y171.611 E.0219
G1 X151.076 Y172.314 E.02223
G1 X150.911 Y173.003 E.02221
G1 X150.682 Y173.664 E.02193
G1 X150.215 Y174.603 E.03288
G1 X149.777 Y175.249 E.02447
G1 X149.283 Y175.83 E.02391
G1 X148.746 Y176.339 E.0232
G1 X148.157 Y176.789 E.02324
G1 X147.524 Y177.174 E.02323
G1 X146.868 Y177.484 E.02275
G1 X146.181 Y177.724 E.02282
G1 X145.458 Y177.892 E.02327
G1 X144.726 Y177.982 E.02312
G1 X143.99 Y177.995 E.02308
G1 X143.227 Y177.927 E.02402
G1 X142.469 Y177.774 E.02425
G1 X141.482 Y177.435 E.03272
G1 X140.85 Y177.122 E.02211
G1 X140.246 Y176.743 E.02236
G1 X139.698 Y176.317 E.02176
G1 X139.183 Y175.826 E.02231
G1 X138.691 Y175.248 E.0238
G1 X138.256 Y174.606 E.02432
G1 X137.79 Y173.671 E.03276
G1 X137.559 Y173.008 E.02201
G1 X137.394 Y172.316 E.02231
G1 X137.3 Y171.611 E.0223
G1 X137.277 Y170.89 E.02262
G1 X137.35 Y170.021 E.02734
G1 X137.524 Y169.194 E.0265
G1 X137.748 Y168.521 E.02224
G1 X138.062 Y167.828 E.02385
G1 X138.226 Y167.553 E.01004
G1 X138.895 Y155.822 E.36841
G1 X139.18 Y154.941 E.02903
G1 X139.479 Y154.334 E.02122
G1 X139.856 Y153.763 E.02145
G1 X140.432 Y153.113 E.02723
G1 X141.01 Y152.638 E.02346
G1 X141.249 Y152.927 F10800
G1 F1200
G1 X141.962 Y152.49 E.02622
G1 X142.475 Y152.269 E.01751
G1 X143.029 Y152.101 E.01815
G1 X143.818 Y151.974 E.02506
G1 X144.62 Y151.972 E.02515
G1 X145.36 Y152.082 E.02346
G1 X146.077 Y152.301 E.02351
G1 X146.755 Y152.622 E.02352
G1 X147.378 Y153.039 E.02351
G1 X147.909 Y153.518 E.02242
G1 X148.356 Y154.049 E.02176
G1 X148.659 Y154.514 E.0174
G1 X148.917 Y155.028 E.01803
G1 X149.178 Y155.766 E.02454
G1 X149.872 Y167.668 E.37381
G1 X150.069 Y167.995 E.01197
G1 X150.374 Y168.668 E.02317
G1 X150.59 Y169.323 E.02162
G1 X150.744 Y170.064 E.02373
G1 X150.815 Y170.912 E.02668
G1 X150.793 Y171.589 E.02124
G1 X150.703 Y172.254 E.02104
G1 X150.547 Y172.906 E.02102
G1 X150.33 Y173.529 E.02068
G1 X149.896 Y174.402 E.03057
G1 X149.483 Y175.013 E.02312
G1 X149.016 Y175.564 E.02265
G1 X148.508 Y176.046 E.02196
G1 X147.951 Y176.473 E.02201
G1 X147.354 Y176.838 E.02194
G1 X146.716 Y177.139 E.02212
G1 X146.067 Y177.364 E.02154
G1 X145.383 Y177.522 E.02201
G1 X144.69 Y177.607 E.02189
G1 X143.995 Y177.618 E.02179
G1 X143.272 Y177.552 E.02276
G1 X142.556 Y177.407 E.02291
G1 X141.638 Y177.091 E.03044
G1 X141.041 Y176.797 E.02087
G1 X140.469 Y176.439 E.02116
G1 X139.937 Y176.026 E.02112
G1 X139.45 Y175.561 E.02111
G1 X138.986 Y175.012 E.02254
G1 X138.575 Y174.405 E.02298
G1 X138.142 Y173.535 E.03047
G1 X137.924 Y172.91 E.02075
G1 X137.766 Y172.256 E.0211
G1 X137.676 Y171.589 E.0211
G1 X137.654 Y170.911 E.02127
G1 X137.725 Y170.064 E.02665
G1 X137.885 Y169.303 E.02438
G1 X138.095 Y168.667 E.021
G1 X138.401 Y167.994 E.02318
G1 X138.597 Y167.668 E.01193
G1 X139.271 Y155.869 E.37055
G1 X139.533 Y155.073 E.02628
G1 X139.812 Y154.512 E.01964
G1 X140.148 Y154.003 E.01912
G1 X140.684 Y153.394 E.02544
G1 X141.203 Y152.965 E.02111
G1 X141.442 Y153.254 F10800
G1 F1200
G1 X142.123 Y152.831 E.02514
G1 X142.614 Y152.62 E.01676
G1 X143.125 Y152.465 E.01674
G1 X143.862 Y152.349 E.02339
G1 X144.605 Y152.349 E.0233
G1 X145.29 Y152.453 E.02172
G1 X145.929 Y152.648 E.02095
G1 X146.558 Y152.944 E.0218
G1 X147.137 Y153.329 E.0218
G1 X147.63 Y153.771 E.02076
G1 X148.047 Y154.265 E.02027
G1 X148.336 Y154.711 E.01666
G1 X148.575 Y155.186 E.01667
G1 X148.814 Y155.866 E.0226
G1 X149.501 Y167.784 E.3743
G1 X149.73 Y168.161 E.01383
G1 X150.027 Y168.814 E.02249
G1 X150.228 Y169.43 E.02032
G1 X150.37 Y170.107 E.02169
G1 X150.438 Y170.911 E.0253
G1 X150.418 Y171.549 E.02001
G1 X150.334 Y172.176 E.01983
G1 X150.188 Y172.791 E.01982
G1 X149.978 Y173.394 E.02002
G1 X149.576 Y174.202 E.0283
G1 X149.188 Y174.778 E.02178
G1 X148.748 Y175.298 E.02136
G1 X148.27 Y175.753 E.02069
G1 X147.746 Y176.157 E.02075
G1 X147.183 Y176.502 E.0207
G1 X146.583 Y176.786 E.02081
G1 X145.953 Y177.004 E.0209
G1 X145.308 Y177.152 E.02075
G1 X144.655 Y177.231 E.02062
G1 X143.999 Y177.241 E.02057
G1 X143.317 Y177.178 E.02147
G1 X142.644 Y177.04 E.02154
G1 X141.794 Y176.748 E.02818
G1 X141.217 Y176.463 E.02018
G1 X140.678 Y176.125 E.01995
G1 X140.177 Y175.734 E.01993
G1 X139.719 Y175.295 E.01989
G1 X139.28 Y174.777 E.02129
G1 X138.895 Y174.205 E.02162
G1 X138.494 Y173.4 E.0282
G1 X138.283 Y172.795 E.02009
G1 X138.135 Y172.178 E.01989
G1 X138.051 Y171.549 E.0199
G1 X138.031 Y170.91 E.02005
G1 X138.099 Y170.108 E.02524
G1 X138.246 Y169.41 E.02237
G1 X138.443 Y168.814 E.01968
G1 X138.739 Y168.161 E.02248
G1 X138.968 Y167.784 E.01383
G1 X139.645 Y155.916 E.37272
G1 X139.886 Y155.206 E.02351
G1 X140.133 Y154.709 E.0174
G1 X140.44 Y154.241 E.01755
G1 X140.937 Y153.674 E.02364
G1 X141.396 Y153.292 E.01872
G1 X141.637 Y153.58 F10800
G1 F1200
G1 X141.716 Y153.514 E.00323
G1 X142.284 Y153.172 E.02079
G1 X142.753 Y152.971 E.016
G1 X143.222 Y152.83 E.01536
G1 X143.878 Y152.726 E.02083
G1 X144.564 Y152.724 E.02151
G1 X145.194 Y152.818 E.01997
G1 X145.782 Y152.996 E.01926
G1 X146.362 Y153.267 E.02007
G1 X146.897 Y153.62 E.0201
G1 X147.351 Y154.026 E.0191
G1 X147.737 Y154.48 E.01868
G1 X148.014 Y154.907 E.01596
G1 X148.232 Y155.343 E.01528
G1 X148.449 Y155.964 E.02063
G1 X149.076 Y167.163 E.35169
G1 X149.133 Y167.905 E.02333
G1 X149.392 Y168.328 E.01555
G1 X149.679 Y168.96 E.02176
G1 X149.866 Y169.537 E.01902
G1 X149.995 Y170.151 E.01967
G1 X150.061 Y170.911 E.02392
G1 X150.043 Y171.509 E.01876
G1 X149.962 Y172.116 E.0192
G1 X149.823 Y172.694 E.01864
G1 X149.626 Y173.258 E.01873
G1 X149.256 Y174.002 E.02605
G1 X148.893 Y174.543 E.02043
G1 X148.48 Y175.033 E.02009
G1 X148.032 Y175.46 E.01941
G1 X147.524 Y175.851 E.0201
G1 X146.995 Y176.174 E.01943
M73 P3 R27
M73 Q3 S27
G1 X146.431 Y176.441 E.01957
G1 X145.84 Y176.644 E.01959
G1 X145.235 Y176.782 E.01946
G1 X144.621 Y176.855 E.01939
G1 X144.005 Y176.864 E.01932
G1 X143.363 Y176.803 E.02022
G1 X142.732 Y176.673 E.0202
G1 X141.949 Y176.404 E.02596
G1 X141.409 Y176.138 E.01887
G1 X140.887 Y175.811 E.01931
G1 X140.417 Y175.443 E.01872
G1 X139.987 Y175.03 E.01869
G1 X139.575 Y174.542 E.02002
G1 X139.215 Y174.005 E.02027
G1 X138.846 Y173.264 E.02595
G1 X138.647 Y172.698 E.01881
G1 X138.508 Y172.118 E.0187
G1 X138.426 Y171.509 E.01927
G1 X138.408 Y170.91 E.01879
